X:2738
T:Castle Kelly reel
M:C
L:1/8
S:(120)8, A Dorian
R:reel
B:120 Favorite Irish Session Tunes
Z:Douglas Cole - St Paul Slow Session
K:Adorian
|: A2 cA A2 cA| GE (3DED G2 EG| A2 cA GAcd| ecdB cAAG|
A2 cA A2 cA| GE (3DED G2 EG| A2 cA GAcd|eged cA A2 :|
|: agec d2 ed| cAGE G3 g| agec d2 cd| eaag a2 ag|
agec d2 ed| cAGE G2 EG| A2 cA GAcd| ecdB cA A2 :|


